svgs/regular/poop.svg

<svg xmlns="http://www.w3.org/2000/svg" viewBox="0 0 512 512"><!-- Font Awesome Pro 6.0.0-alpha2 by @fontawesome - https://fontawesome.com License - https://fontawesome.com/license (Commercial License) --><path d="M481.75 331.125C484.625 321.625 486 311.75 486 301.5C486 262.625 465 228.5 433.875 209.875C434 208 434 206 434 204C434 166.125 412.75 133 381.625 116.125C376.5 51.25 322.125 0 256 0C248.375 0 241.75 1 236.25 1.875C219.75 4.5 205.875 15.375 199.375 30.75C193 46.125 195 63.75 204.75 77.25C206.875 80.25 208 83.5 208 87C208 96.375 200.375 104 191 104H178C122.875 104 78 148.875 78 204C78 206 78 208 78.125 209.875C47 228.5 26 262.625 26 301.5C26 311.75 27.5 321.625 30.25 331.125C11.375 350.375 0 376.625 0 405.5C0 464.25 47.75 512 106.5 512H405.5C464.25 512 512 464.25 512 405.5C512 376.625 500.625 350.375 481.75 331.125ZM405.5 464H106.5C74.25 464 48 437.75 48 405.5C48 376.375 69.375 352.375 97.25 347.875C83.25 337.25 74 320.5 74 301.5C74 269.25 100.25 243 132.5 243H144C133 233.5 126 219.625 126 204C126 175.25 149.25 152 178 152H191C226.875 152 256 122.875 256 87C256 72.875 251.375 59.875 243.75 49.25C247.75 48.625 251.75 48 256 48C299.125 48 334 82.875 334 126C334 135.125 332.125 143.875 329.25 152H334C362.75 152 386 175.25 386 204C386 219.625 379 233.5 368 243H379.5C411.75 243 438 269.25 438 301.5C438 320.5 428.75 337.25 414.75 347.875C442.625 352.375 464 376.375 464 405.5C464 437.75 437.75 464 405.5 464Z"/></svg>

<svg xmlns="http://www.w3.org/2000/svg" viewBox="0 0 512 512"><!-- Font Awesome Pro 5.15.1 by @fontawesome - https://fontawesome.com License - https://fontawesome.com/license (Commercial License) --><path d="M481.81 331.15c2.76-9.5 4.19-19.46 4.19-29.65 0-38.9-20.96-72.99-52.18-91.58.12-1.97.18-3.94.18-5.92 0-37.92-21.21-70.97-52.39-87.92C376.54 51.22 322.14 0 256 0c-7.63 0-14.23.95-19.81 1.83a47.993 47.993 0 0 0-36.76 28.92 48.01 48.01 0 0 0 5.3 46.47C206.9 80.25 208 83.54 208 87c0 9.37-7.63 17-17 17h-13c-55.14 0-100 44.86-100 100 0 1.98.06 3.96.18 5.92C46.96 228.51 26 262.6 26 301.5c0 10.19 1.44 20.15 4.19 29.65C11.36 350.38 0 376.68 0 405.5 0 464.22 47.78 512 106.5 512h299c58.72 0 106.5-47.78 106.5-106.5 0-28.82-11.36-55.12-30.19-74.35zM405.5 464h-299C74.19 464 48 437.81 48 405.5c0-29.15 21.38-53.12 49.27-57.57C83.22 337.24 74 320.52 74 301.5c0-32.31 26.19-58.5 58.5-58.5h11.44c-10.9-9.53-17.94-23.38-17.94-39 0-28.72 23.28-52 52-52h13c35.9 0 65-29.1 65-65 0-14.12-4.62-27.1-12.27-37.76C247.75 48.6 251.8 48 256 48c43.08 0 78 34.92 78 78 0 9.17-1.87 17.83-4.78 26H334c28.72 0 52 23.28 52 52 0 15.62-7.03 29.47-17.94 39h11.44c32.31 0 58.5 26.19 58.5 58.5 0 19.02-9.22 35.74-23.27 46.43 27.89 4.45 49.27 28.42 49.27 57.57 0 32.31-26.19 58.5-58.5 58.5z"/></svg>
